X:0512
T:Up in the Morning Early
T:Stingo
T:Cold and Raw
T:Cauld Blaws the Wind (Frae East to West)
T:Up in the Morning’s No for Me
O:Playford 1695
B:RSCDS 5-12
Z:Anselm Lingnau <anselm@strathspey.org>
R:Jig (8x24) ABB
M:6/8
L:1/8
K:Gm
% - - - - - - - - - - - - - - -
z2D |\
"Gm"G2A B2c | "Dm"d>=ef "(F)"F2F | "Gm"G>AG "D7"d3/2c/B/A/ | "Gm"G3 "D7"d2D |\
"Gm"G2A B2c | "Bb"d>=ef "F"F2F | "Gm"G>AG "D7"d3/2c/B/A/ | "Gm"G3 |]
|: d3 |\
"Bb"B>cB B2B | "F7"c>dc c3 | "Bb"d>ef "Eb"g>fe | "Bb"d3 "F"f2F |\
"Gm"B>cB B2B | "Cm"cdf "Eb"g2f/e/ | "Bb"d>cB "D7"c>BA | "Gm"G3 :|
